Sources/FrostedUI/Resources/Icons.xcassets/hashtagFilled16.imageset/hashtag-filled-16.svg

<svg width="16" height="16" viewBox="0 0 16 16" fill="none" xmlns="http://www.w3.org/2000/svg" data-fui-icon="true">
  <path
    d="M10.9609 2.3562C11.1755 1.55633 11.9979 1.08139 12.7979 1.29565C13.598 1.51013 14.0728 2.33339 13.8584 3.13354L13.5264 4.37183H14.2559L14.4092 4.37964C15.1654 4.45646 15.7556 5.0954 15.7559 5.87183C15.7559 6.64846 15.1655 7.28717 14.4092 7.36401L14.2559 7.37183H12.7227L12.1729 9.42456H13.0527L13.2061 9.43237C13.9624 9.50921 14.5527 10.148 14.5527 10.9246C14.5527 11.7012 13.9624 12.3399 13.2061 12.4167L13.0527 12.4246H11.3691L10.8936 14.2C10.6791 15 9.85577 15.4748 9.05566 15.2605C8.25582 15.0459 7.7809 14.2236 7.99512 13.4236L8.2627 12.4246H5.59473L5.11914 14.2C4.90462 15 4.08136 15.4749 3.28125 15.2605C2.48162 15.0458 2.00659 14.2234 2.2207 13.4236L2.48828 12.4246H1.74512C0.916821 12.4244 0.245117 11.7529 0.245117 10.9246C0.245143 10.0963 0.916837 9.42471 1.74512 9.42456H3.29297L3.84277 7.37183H2.94824C2.11995 7.37167 1.44824 6.70016 1.44824 5.87183C1.44849 5.0437 2.1201 4.37198 2.94824 4.37183H4.64648L5.18652 2.3562C5.40108 1.55642 6.22353 1.08159 7.02344 1.29565C7.82364 1.51007 8.2984 2.33335 8.08398 3.13354L7.75195 4.37183H10.4209L10.9609 2.3562ZM6.39844 9.42456H9.06738L9.61719 7.37183H6.94824L6.39844 9.42456Z"
    fill="currentColor"
  />
</svg>

<svg xmlns="http://www.w3.org/2000/svg" width="16" height="16" fill="none" data-fui-icon="true" viewBox="0 0 16 16"><path fill="currentColor" d="M10.96 2.356a1.5 1.5 0 0 1 2.898.778l-.332 1.238h.73l.153.008a1.5 1.5 0 0 1 0 2.984l-.153.008h-1.533l-.55 2.053h.88l.153.007a1.5 1.5 0 0 1 0 2.985l-.153.008h-1.684l-.475 1.775a1.501 1.501 0 0 1-2.899-.776l.268-1H5.595L5.119 14.2a1.501 1.501 0 0 1-2.898-.776l.267-1h-.743a1.5 1.5 0 0 1 0-3h1.548l.55-2.052h-.895a1.5 1.5 0 0 1 0-3h1.698l.54-2.016a1.5 1.5 0 0 1 2.898.778l-.332 1.238h2.669zM6.399 9.425h2.67l.55-2.053h-2.67z"/></svg>
